X:161
T:16. THE COUNTRY BUMPKIN (hornpipes)
T:Paddy On The Turnpike
M:4/4
L:1/8
R:Hornpipe
O:Ireland
K:G
P:A
(AG)|\
EAAG A2AB|cAdB cBAG|EGGF G2GA|BGAF GFED|
EAAG A2AB|cBAB cdef|gage dBGB|cABG A2 ::
P:B
(cd)|\
eaab a2af|bfaf gfed|efga g2gf|bfaf|gfed|
eaab a2af|bfaf gfed|gage dBGB|cABG A2 :|
